X:1
T:Laetentur coeli - Carturan
T:James Gibb editions
%%score { 1 | 2 } 3
L:1/8
Q:1/4=88
M:4/4
K:F
V:1 treble nm="Soprano I" snm="S"
V:2 treble 
V:3 treble nm="Alto" snm="A"
V:1
"^Laetentur coeli""^Carlo Carturan\n(1858-1936)""^andante"!p! c4 c2 d2 | B4"^," c4 | c4 B2 d2 | %3
w: Lae- ten- tur|coe- li,|lae- ten- tur|
 (c3 B) A2 z2 |!f! G2 A2 B2 A2 |[M:4/4] G4"^," d2 d2- | d2 c2 (c=B) (AB) | c4 c2 z2 | (d4 ^c2) d2 | %9
w: coe\- * li,|et ex- sul- tet|ter- ra, et|* ex- sul\- * tet *|ter- ra,|an\- * te|
 d3 d"^," d4 | f4 f2 d2 | c3 c c2 z2 | (F2 G2) A2 B2 | (c2 d2) e2"^rall."[Q:1/4=87] f2 | %14
w: fa- ci- em,|fa- ci- em|Do- mi- ni,|quo\- * ni- am,|quo\- * ni- am|
!p![Q:1/4=84] (A4[Q:1/4=81] G4) |[Q:1/4=77] !fermata!A8 |] %16
w: ve\- *|nit.|
V:2
!p! A4 A2 A2 | G4"^," G4 | F4 F2 F2 | E4 F2 z2 |!f! F2 F2 F2 F2 |[M:4/4] F4 F2 z2 | EF G2 F4 | %7
w: Lae- ten- tur|coe- li,|lae- ten- tur|coe- li,|et ex- sul- tet|ter- ra,|et ex- sul- tet|
 E4 E2 z2 | B6 B2 | A3 A"^," A4 | B4 A2 B2 | A3 A A2 z2 | F4 F2 F2 | B4 B2 A2 |!p! (F6 E2) | %15
w: ter- ra,|an- te|fa- ci- em,|fa- ci- em|Do- mi- ni,|quo- ni- am,|quo- ni- am|ve\- *|
 !fermata!F8 |] %16
w: nit.|
V:3
!p! F4 F2 F2 | F4"^," E4 | D4 D2 B,2 | C4 D2 z2 |!f! B,2 C2 D2 C2 |[M:4/4] =B,4 B,2 z2 | CD E2 D4 | %7
w: Lae- ten- tur|coe- li,|lae- ten- tur|coe- li,|et ex- sul- tet|ter- ra,|et ex- sul- tet|
 C4 C2 z2 | G6 G2 | F4 E2"^," F2 | D4 D2 B,2 | F3 F F2 z2 | (A,2 B,2) C2 D2 | (E2 D2) C2 D2 | %14
w: ter- ra,|an- te|fa- ci- em,|fa- ci- em|Do- mi- ni,|quo\- * ni- am,|quo\- * ni- am|
!p! (C2 =B,2 C4) | !fermata!F8 |] %16
w: ve\- * *|nit.|

